X:39
T:Marshall Saxe's Tambourine THO.039
M:2/4
L:1/8
Z:vmp. Peter Dunk 2012.from a transcription by Fynn Titford-Mock 2006
B:Thompson's Compleat Collection of 200 Favourite Country Dances Vol.I,1758
Q:1/4=90
K:A
A|c/e/d/e/ c/d/B/c/|AGAB|cBcd|e/d/c/B/ A/c/B/A/|\
c/e/d/e/ c/d/B/c/|AGAB|ceac|{c}B3:|
|:e|g/b/a/b/ g/a/f/g/|e^def|gfga|b/a/g/f/ ee|\
g/b/a/b/ g/a/f/g/|e^dea|(3g/f/e/ (3a/g/f/ Tf2| e3 A|
c/e/d/e/ c/d/B/c/|AGAB|cBcd|e/d/c/B/ A/c/B/A/|\
c/e/d/e/ c/d/B/c/|AGAB|(3c/B/A/ (3d/c/B/ TB2|A3:|

